X:19
T:Down The Brae
S:Bernie Waugh
R:Reel
M:4/4
L:1/4
K:Em
B,D|\
"Em"E>DEF|G>FGA|"C"B2"D"e2|"G"dB2A|\
G>FGB|"D"AFDE|"F#m"F>GFE|"Bm7"DB,2B,|
"Em"E>DEF|G>FGA|"C"B2"D"e2|"G"dB2A|\
G>FGB|"D"AFDE/F/|"C"GE~ED|"Em"E2||
ed|\
"Em"B2e2|e2de |"Bm"f>gfe|dB2B|\
"Am"A>GAB|"C"c>Bce|"G"~dBAB|"Bm"d2BA|
"Em"B2e2|e2de |"Bm"f>gfe|dB2A|\
"G"G>FGB|"D"AFDE/F/|"C"GE~ED|"Em"E2|]


